_includes/icons/color-medium-monogram.svg

<svg fill="#666" height="50" viewBox="0 0 48 48" width="50" xmlns="http://www.w3.org/2000/svg"><path d="m6 6h36v36h-36z" fill="#37474f"/><path d="m34.146 16.229 1.854-1.854v-.375h-6.636l-4.92 11.791-5.184-11.791h-7.26v.375l1.884 2.261c.075.09.116.203.116.32v12.286c0 .183-.063.36-.177.502l-2.323 2.88v.376h7v-.375l-2.325-2.906c-.113-.142-.175-.318-.175-.5v-10.494l6.365 14.275h1.26l5.375-12.917v10.085c0 .133-.053.26-.146.353l-2.104 2.104v.375h9.25v-.375l-1.854-1.854c-.093-.093-.146-.22-.146-.353v-13.836c0-.133.053-.26.146-.353z" fill="#fff"/></svg>

<svg xmlns="http://www.w3.org/2000/svg" viewBox="0 0 48 48" width="50" height="50" fill="#666"><path fill="#37474f" d="M6 6H42V42H6z"/><path d="M34.146,16.229L36,14.375V14h-6.636l-4.92,11.791L19.26,14H12v0.375l1.884,2.261 c0.075,0.09,0.116,0.203,0.116,0.32v12.286c0,0.183-0.063,0.36-0.177,0.502l-2.323,2.88V33h7v-0.375l-2.325-2.906 C16.062,29.577,16,29.401,16,29.219V18.725L22.365,33h1.26L29,20.083v10.085c0,0.133-0.053,0.26-0.146,0.353l-2.104,2.104V33H36 v-0.375l-1.854-1.854C34.053,30.678,34,30.551,34,30.418V16.582C34,16.449,34.053,16.322,34.146,16.229z" fill="#fff"/></svg>
